svg/fluentui-system-icons/ic_fluent_speaker_2_24_filled.svg

<svg width="24" height="24" viewBox="0 0 24 24" fill="none" xmlns="http://www.w3.org/2000/svg">
<path d="M15 4.25049V19.7461C15 20.8247 13.7255 21.397 12.9194 20.6802L8.42793 16.6865C8.29063 16.5644 8.11329 16.497 7.92956 16.497H4.25C3.00736 16.497 2 15.4896 2 14.247V9.74907C2 8.50643 3.00736 7.49907 4.25 7.49907H7.92961C8.11333 7.49907 8.29065 7.43165 8.42794 7.30958L12.9195 3.31631C13.7255 2.59964 15 3.17187 15 4.25049ZM18.9916 5.89782C19.3244 5.65128 19.7941 5.72126 20.0407 6.05411C21.2717 7.71619 22 9.77439 22 12.0005C22 14.2266 21.2717 16.2848 20.0407 17.9469C19.7941 18.2798 19.3244 18.3497 18.9916 18.1032C18.6587 17.8567 18.5888 17.387 18.8353 17.0541C19.8815 15.6416 20.5 13.8943 20.5 12.0005C20.5 10.1067 19.8815 8.35945 18.8353 6.9469C18.5888 6.61404 18.6587 6.14435 18.9916 5.89782ZM17.143 8.36982C17.5072 8.17262 17.9624 8.30806 18.1596 8.67233C18.6958 9.66294 19 10.7973 19 12.0005C19 13.2037 18.6958 14.338 18.1596 15.3287C17.9624 15.6929 17.5072 15.8284 17.143 15.6312C16.7787 15.434 16.6432 14.9788 16.8404 14.6146C17.2609 13.8378 17.5 12.9482 17.5 12.0005C17.5 11.0528 17.2609 10.1632 16.8404 9.38642C16.6432 9.02216 16.7787 8.56701 17.143 8.36982Z" fill="#212121"/>
</svg>

<svg xmlns="http://www.w3.org/2000/svg" width="24" height="24"><path d="M15 4.25v15.496c0 1.079-1.274 1.651-2.08.934l-4.492-3.994a.75.75 0 0 0-.498-.189H4.25A2.25 2.25 0 0 1 2 14.247V9.749A2.25 2.25 0 0 1 4.25 7.5h3.68a.75.75 0 0 0 .498-.19l4.491-3.993C13.726 2.6 15 3.172 15 4.25Zm3.992 1.648a.75.75 0 0 1 1.049.156A9.959 9.959 0 0 1 22 12.001a9.96 9.96 0 0 1-1.96 5.946.75.75 0 0 1-1.205-.893 8.459 8.459 0 0 0 1.665-5.053 8.459 8.459 0 0 0-1.665-5.054.75.75 0 0 1 .157-1.05ZM17.143 8.37a.75.75 0 0 1 1.017.302c.536.99.84 2.125.84 3.329a6.973 6.973 0 0 1-.84 3.328.75.75 0 0 1-1.32-.714 5.48 5.48 0 0 0 .66-2.614c0-.948-.24-1.838-.66-2.615a.75.75 0 0 1 .303-1.016Z"/></svg>
